X: 1198
T: Kalenin Dibinde Bir Taş Olaydım
C: Abdülvahit Kuzecioğlu
O: Turkey
F: http://compmusic.upf.edu/node/140
N: rast--turku--sofyan--kalenin_dibinde--kerkuk
N: makam= rast
N: form= turku
N: usul= sofyan = 4/4
M: 4/4
L: 1/16
K: C _1/4B ^f  
Q: 1/4=75
%%MIDI tuningsystem comma53
z2cc c2e2 dedc B2d2  | cdcB A2c2 BcBA G2dd  | 
w:   |   | 
d2{e}dc BcAB GABc dBc2  | z2cc c2e2 dedc B2d2  | 
w:   |   | 
cdcB A2c2 BcBA G2dd  | d2{e}dc BcAB G6z2  | 
w:   |   | 
z2fg g2g2 fgag gfed  | e2{f}ef geed d3e dcd2  | 
w:  Ka le nin  di bin *  *  *  de   |  bir  *  taş_ *  o *  lay *  dım   SAZ  | 
z2fg g2g2 fgag gfed  | e2{f}ef geed d3e dcd2  | 
w:  Ka le nin  di bin *  *  *  de   |  bir  *  taş_ *  o *  lay *  dım   SAZ  | 
z2cc c2e2 eddc B2d2  | dccB A2c2 BcBA G2d2  | 
w:  Ge le ne  gi de *  *  *  ne  gi  |  de *  *  *  ne  gi de *  *  *  ne   | 
d3/2e/dc BcAB GABc dBc2  | z2cc c2e2 eddc B2d2  | 
w:  yol *  daş_ *  o *  lay *  dım   SAZ  |  Ge le ne  gi de *  *  *  ne  gi  | 
dccB A2c2 BcBA G2d2  | d3/2e/cd BcAB G4 z4  | 
w:  de *  *  *  ne  gi de *  *  *  ne   |  yol *  daş_ *  o *  lay *  dım    | 
z2fg g2g2 fgag gfed  | e2{f}ef geed d3e dcd2  | 
w:  Ba cı sı  gü ze *  *  *  le   |  kar *  daş_ *  o *  lay *  dım   SAZ  | 
z2fg g2g2 fgag gfed  | e2{f}ef geed d3e dcd2  | 
w:  Ba cı sı  gü ze *  *  *  le   |  kar *  daş_ *  o *  lay *  dım   SAZ  | 
z2cc c2e2 dedc B2d2  | cdcB A2c2 BcBA G2dd  | 
w:  Kalk  gi dek  mey ha na  ha na ya   Çey  |  ha na  ha na ya  mey ha na  ha na ya   Ba ba   | 
d2{e}dc BcAB GABc dBc2  | z2cc c2e2 dedc B2d2  | 
w:  gön *  lüm_ *  ey *  len *  sin   SAZ  |  Ya rın  hak kın  di vâ *  *  nın da   | 
cdcB A2c2 BcBA G2d2  | d2{e}dc BcAB G6z2  | 
w:  di vâ *  *  nın da   Di vâ *  *  nın da   |  doğ *  ru  da  söy *  len *  sin    | 
z2cc c2e2 dedc B2d2  | cdcB A2c2 BcBA G2dd  | 
w:  Kalk  gi dek  mey ha na  ha na ya   Çey  |  ha na  ha na ya  mey ha na  ha na ya   Ba ba   | 
d2{e}dc BcAB GABc dBc2  | z2cc c2e2 dedc B2d2  | 
w:  gön *  lüm_ *  ey *  len *  sin   SAZ  |  Ya rın  hak kın  di vâ *  *  nın da   | 
cdcB A2c2 BcBA G2d2  | d2{e}dc BcAB G6z2  | 
w:  di vâ *  *  nın da   Di vâ *  *  nın da   |  doğ *  ru  da  söy *  len *  sin    | 
z2cc c2e2 dedc B2d2  | cdcB A2c2 BcBA G2dd  | 
w:   |   | 
d2{e}dc BcAB GABc dBc2  | z2cc c2e2 dedc B2d2  | 
w:   |   | 
cdcB A2c2 BcBA G2dd  | d2{e}dc BcAB G6z2  | 
w:   |   | 
z2fg g2g2 fgag gfed  | e2{f}ef geed d3e dcd2  | 
w:  Ka le nin  di bin *  *  *  de   |  bir  *  taş_ *  o *  lay *  dım   SAZ  | 
z2fg g2g2 fgag gfed  | e2{f}ef geed d3e dcd2  | 
w:  Ka le nin  di bin *  *  *  de   |  bir  *  taş_ *  o *  lay *  dım   SAZ  | 
z2cc c2e2 eddc B2d2  | dccB A2c2 BcBA G2d2  | 
w:  Ge le ne  gi de *  *  *  ne  gi  |  de *  *  *  ne  gi de *  *  *  ne   | 
d3/2e/dc BcAB GABc dBc2  | z2cc c2e2 eddc B2d2  | 
w:  yol *  daş_ *  o *  lay *  dım   SAZ  |  Ge le ne  gi de *  *  *  ne  gi  | 
dccB A2c2 BcBA G2d2  | d3/2e/cd BcAB G4 z4  | 
w:  de *  *  *  ne  gi de *  *  *  ne   |  yol *  daş_ *  o *  lay *  dım    | 
z2fg g2g2 fgag gfed  | e2{f}ef geed d3e dcd2  | 
w:  Ba cı sı  gü ze *  *  *  le   |  kar *  daş_ *  o *  lay *  dım   SAZ  | 
z2fg g2g2 fgag gfed  | e2{f}ef geed d3e dcd2  | 
w:  Ba cı sı  gü ze *  *  *  le   |  kar *  daş_ *  o *  lay *  dım   SAZ  | 
z2cc c2e2 dedc B2d2  | cdcB A2c2 BcBA G2dd  | 
w:  Kalk  gi dek  mey ha na  ha na ya   Çey  |  ha na  ha na ya  mey ha na  ha na ya   Ba ba   | 
d2{e}dc BcAB GABc dBc2  | z2cc c2e2 dedc B2d2  | 
w:  gön *  lüm_ *  ey *  len *  sin   SAZ  |  Ya rın  hak kın  di vâ *  *  nın da   | 
cdcB A2c2 BcBA G2d2  | d2{e}dc BcAB G6z2  | 
w:  di vâ *  *  nın da   Di vâ *  *  nın da   |  doğ *  ru  da  söy *  len *  sin    | 
z2cc c2e2 dedc B2d2  | cdcB A2c2 BcBA G2dd  | 
w:  Kalk  gi dek  mey ha na  ha na ya   Çey  |  ha na  ha na ya  mey ha na  ha na ya   Ba ba   | 
d2{e}dc BcAB GABc dBc2  | z2cc c2e2 dedc B2d2  | 
w:  gön *  lüm_ *  ey *  len *  sin   SAZ  |  Ya rın  hak kın  di vâ *  *  nın da   | 
cdcB A2c2 BcBA G2d2  | d2{e}dc BcAB G6z2  | 
w:  di vâ *  *  nın da   Di vâ *  *  nın da   |  doğ *  ru  da  söy *  len *  sin    | 
|


